assets/images/donate/banks/accessbank.svg

<svg width="163" height="40" viewBox="0 0 163 40" fill="none" xmlns="http://www.w3.org/2000/svg">
<path d="M46.8329 14.4019C47.3228 12.9205 47.7872 11.5205 48.2414 10.1324C48.2973 9.96291 48.4109 9.92393 48.5584 9.89681C51.0109 9.43919 53.4736 9.04935 55.9787 9.17308C57.7465 9.25613 59.4465 9.61715 60.9685 10.5663C63.0329 11.851 63.977 13.7866 64.1109 16.1595C64.1889 17.5239 63.9668 18.8714 63.7719 20.207C63.3668 22.929 62.9499 25.6477 62.5584 28.3697C62.5477 28.4838 62.5065 28.593 62.4391 28.6857C62.3717 28.7785 62.2806 28.8514 62.1753 28.8968C60.5787 29.7731 58.8465 30.2527 57.0668 30.5443C54.8644 30.9259 52.618 30.983 50.399 30.7138C48.5499 30.4816 46.8261 29.907 45.4838 28.5477C44.9012 27.9512 44.449 27.2401 44.1558 26.4596C43.8626 25.6791 43.7348 24.8461 43.7805 24.0136C43.8263 23.1811 44.0445 22.3672 44.4215 21.6235C44.7984 20.8798 45.3258 20.2225 45.9702 19.6934C47.3465 18.5612 48.9736 17.9985 50.6872 17.6341C53.2821 17.0849 55.9007 17.1595 58.5211 17.3595C58.8482 17.3833 58.9194 17.2833 58.9346 16.9917C59.0516 14.9477 57.8245 13.4799 55.6702 13.0849C54.1753 12.8104 52.7075 13.0477 51.2397 13.2883C49.742 13.5348 48.2679 13.9073 46.8329 14.4019ZM55.999 20.568C55.0662 20.5619 54.1344 20.6305 53.2126 20.7731C52.216 20.9426 51.2482 21.2053 50.4448 21.8663C49.5363 22.6138 49.2939 23.6172 49.4736 24.7222C49.6431 25.7307 50.3482 26.2833 51.2617 26.6087C51.6805 26.756 52.1161 26.8499 52.5584 26.8883C54.1923 27.046 55.7787 26.7612 57.355 26.3714C57.4619 26.3573 57.5599 26.3045 57.6305 26.223C57.7011 26.1414 57.7394 26.0368 57.738 25.929C57.9533 24.3273 58.1668 22.7239 58.4041 21.1256C58.4448 20.8494 58.3533 20.7968 58.1228 20.7527C57.4206 20.6368 56.7106 20.5751 55.999 20.568Z" fill="#114185"/>
<path d="M122.501 25.5646C122.23 26.3883 121.993 27.1256 121.742 27.8629C121.542 28.468 121.328 29.068 121.138 29.6782C121.12 29.7716 121.075 29.8575 121.008 29.925C120.941 29.9926 120.855 30.0388 120.762 30.0578C118.169 30.7494 115.542 31.1239 112.864 30.7866C109.813 30.4019 107.291 29.0917 105.745 26.2934C104.794 24.5612 104.493 22.6748 104.621 20.7307C104.867 17.0324 106.408 13.9663 109.272 11.5917C111.013 10.1477 113.043 9.40529 115.277 9.18495C116.818 9.0341 118.35 9.06291 119.854 9.48156C122.915 10.329 124.955 12.7104 125.347 15.8629C125.572 17.6748 125.347 19.4544 125.054 21.2358C125.018 21.4578 124.906 21.4646 124.737 21.4646C123.915 21.4646 123.091 21.4646 122.269 21.4646C118.314 21.4646 114.359 21.4646 110.404 21.4646C110.086 21.4646 109.993 21.5426 109.988 21.8697C109.943 24.5341 111.415 26.2934 114.033 26.7426C115.969 27.0816 117.852 26.7883 119.732 26.3782C120.672 26.168 121.597 25.8962 122.501 25.5646ZM115.586 18.0053H119.382C120.542 18.0053 120.542 18.0053 120.581 16.846C120.66 14.4985 119.225 12.968 116.891 12.8375C114.099 12.6799 111.467 14.7019 110.789 17.7019C110.733 17.951 110.789 18.0121 111.043 18.0104C112.554 17.9985 114.06 18.0053 115.586 18.0053Z" fill="#114185"/>
<path d="M132.246 30.8544C129.758 30.8379 127.287 30.426 124.928 29.6341C124.692 29.5527 124.63 29.4849 124.714 29.229C125.102 28.055 125.473 26.8753 125.828 25.69C125.916 25.3985 126.019 25.4222 126.253 25.5341C128.519 26.6426 131.079 27.0034 133.563 26.5646C134.146 26.4758 134.699 26.2492 135.177 25.9036C135.398 25.7504 135.582 25.5497 135.715 25.3161C135.848 25.0826 135.927 24.8222 135.946 24.554C135.965 24.2859 135.924 24.0168 135.826 23.7667C135.727 23.5166 135.574 23.2917 135.377 23.1087C134.946 22.7099 134.463 22.3722 133.94 22.1053C132.643 21.3799 131.324 20.7002 130.092 19.8595C126.782 17.5934 127.185 12.8765 130.445 10.807C131.889 9.89003 133.47 9.43071 135.15 9.25613C137.95 8.9663 140.657 9.44596 143.324 10.2494C143.568 10.3222 143.631 10.3883 143.538 10.6477C143.136 11.7612 142.748 12.8816 142.384 14.0087C142.287 14.3053 142.172 14.2832 141.943 14.1782C140.274 13.3908 138.447 12.9965 136.602 13.0256C135.707 13.0477 134.835 13.1951 134.077 13.7239C133.755 13.9293 133.509 14.2347 133.378 14.5933C133.246 14.9518 133.236 15.3437 133.348 15.7087C133.494 16.118 133.77 16.4685 134.133 16.707C134.918 17.2968 135.816 17.6951 136.675 18.1663C137.727 18.7153 138.73 19.3514 139.675 20.068C142.468 22.2849 142.185 26.5087 139.506 28.6544C137.777 30.0358 135.753 30.5883 133.601 30.785C133.06 30.8324 132.523 30.8409 132.246 30.8544Z" fill="#114185"/>
<path d="M150.53 30.8544C148.074 30.8307 145.637 30.423 143.308 29.646C143.038 29.5561 142.969 29.4765 143.069 29.1917C143.452 28.0426 143.815 26.8866 144.167 25.7273C144.252 25.446 144.337 25.4053 144.611 25.5375C146.868 26.6357 149.412 26.9974 151.886 26.5714C152.416 26.4882 152.924 26.2991 153.379 26.0155C154.503 25.2985 154.64 23.9816 153.691 23.0595C153.293 22.7018 152.85 22.397 152.374 22.1527C151.018 21.3832 149.609 20.6951 148.333 19.7799C145.389 17.6527 145.755 13.8036 147.555 11.8714C148.769 10.5714 150.301 9.87307 152.001 9.4985C154.257 8.99002 156.511 9.11205 158.764 9.529C159.713 9.6985 160.642 9.95612 161.57 10.207C161.879 10.2934 161.991 10.3849 161.86 10.7375C161.469 11.8002 161.113 12.8748 160.767 13.9578C160.67 14.2544 160.574 14.2968 160.282 14.1697C158.636 13.3966 156.837 13.0033 155.018 13.0188C154.17 13.0341 153.352 13.1595 152.613 13.6036C151.913 14.0222 151.559 14.6307 151.664 15.468C151.73 16.0002 152.05 16.3714 152.453 16.6765C153.301 17.3188 154.276 17.7426 155.198 18.251C156.248 18.8324 157.286 19.4375 158.203 20.2188C160.772 22.4222 160.482 26.507 157.904 28.6087C156.52 29.7392 154.913 30.3256 153.179 30.629C152.303 30.7713 151.417 30.8467 150.53 30.8544Z" fill="#114185"/>
<path d="M83.3824 25.8646C83.2959 26.3731 83.0773 26.829 82.9163 27.3087C82.6095 28.2222 82.2824 29.1273 81.979 30.0426C81.9567 30.1341 81.906 30.2162 81.8341 30.2771C81.7622 30.338 81.6729 30.3746 81.579 30.3816C79.5451 30.7206 77.4892 30.9358 75.4231 30.7799C72.34 30.5477 69.6959 29.4239 67.879 26.7968C66.5976 24.946 66.1451 22.8426 66.2586 20.6273C66.4485 16.9324 68.0146 13.9087 70.901 11.5934C72.5553 10.268 74.501 9.61716 76.5739 9.34598C79.1398 8.98229 81.7527 9.1385 84.257 9.8053C84.7349 9.93581 85.1959 10.1189 85.6654 10.2714C85.8349 10.3256 85.879 10.3985 85.8163 10.5833C85.4163 11.7528 85.0197 12.9256 84.6451 14.1036C84.562 14.3629 84.4451 14.3104 84.2773 14.2443C83.0806 13.7535 81.8133 13.4566 80.5231 13.3646C77.7315 13.207 75.3044 13.9748 73.562 16.2985C71.9298 18.4765 71.6773 22.0934 73.4247 24.2799C74.5112 25.6358 75.9451 26.3544 77.6468 26.5528C79.4824 26.7663 81.257 26.4121 83.0095 25.9087C83.1214 25.8765 83.2349 25.8545 83.3485 25.8273L83.3824 25.8646Z" fill="#114185"/>
<path d="M102.704 25.8409C102.314 26.9629 101.867 28.0731 101.547 29.2188C101.314 30.0544 100.923 30.451 100.011 30.5426C97.4687 30.7968 94.9264 31.0815 92.384 30.4087C88.3857 29.346 85.7738 26.1561 85.5569 22.0104C85.3196 17.5053 87.045 13.9053 90.6738 11.2426C92.1992 10.1256 93.9789 9.59681 95.8365 9.35443C98.4018 8.99195 101.014 9.14757 103.518 9.81206C103.982 9.93918 104.428 10.129 104.891 10.2629C105.133 10.3341 105.14 10.4443 105.06 10.6561C104.672 11.79 104.287 12.9239 103.926 14.0663C103.84 14.3392 103.737 14.329 103.514 14.2443C101.738 13.5663 99.9213 13.1985 98.0043 13.3968C94.7484 13.746 92.2704 15.8985 91.645 19.0663C91.1942 21.3527 91.6077 23.4443 93.4298 25.0629C94.8823 26.351 96.6501 26.7104 98.5331 26.6002C99.8616 26.5127 101.174 26.2622 102.442 25.8544C102.518 25.8409 102.586 25.7782 102.704 25.8409Z" fill="#114185"/>
<path d="M17.0198 0.0628967V3.30358L34.8995 21.1832L19.4181 36.6646L3.91472 21.1629L11.5096 13.568H8.21303L0.611328 21.1697L19.3927 39.951L38.1503 21.1934L17.0198 0.0628967Z" fill="#FE6309"/>
<path d="M17.0132 5.53409V8.77477L29.4216 21.1832L19.425 31.1799L9.40638 21.1629L17.0013 13.568H13.7047L6.10299 21.1697L19.3996 34.4663L32.6725 21.1934L17.0132 5.53409Z" fill="#FE6309"/>
<path d="M19.3607 13.3307L11.5167 21.1697L19.3743 29.0273L21.0285 27.3714L27.2167 21.1934L19.3607 13.3307ZM19.4031 25.7527L14.8133 21.1629L19.3777 16.5985L23.954 21.1748L19.4031 25.7527Z" fill="#FE6309"/>
</svg>

<svg width="163" height="40" fill="none" xmlns="http://www.w3.org/2000/svg"><path d="M46.833 14.402c.49-1.481.954-2.881 1.408-4.27.056-.17.17-.208.317-.235 2.453-.458 4.916-.848 7.42-.724 1.768.083 3.468.444 4.99 1.393 2.065 1.285 3.009 3.22 3.143 5.594.078 1.364-.144 2.711-.34 4.047-.404 2.722-.821 5.44-1.213 8.163a.639.639 0 0 1-.383.527c-1.596.876-3.328 1.356-5.108 1.647a22.901 22.901 0 0 1-6.668.17c-1.85-.232-3.573-.807-4.915-2.166a6.016 6.016 0 0 1 .486-8.855c1.377-1.132 3.004-1.695 4.717-2.059 2.595-.55 5.214-.474 7.834-.274.327.023.398-.077.414-.368.117-2.044-1.11-3.512-3.265-3.907-1.495-.275-2.962-.037-4.43.203a26.96 26.96 0 0 0-4.407 1.114zm9.166 6.166a17.479 17.479 0 0 0-2.786.205c-.997.17-1.965.432-2.768 1.093-.909.748-1.151 1.751-.971 2.856.17 1.009.874 1.561 1.788 1.887.419.147.854.24 1.296.28 1.634.157 3.22-.128 4.797-.518a.44.44 0 0 0 .383-.442c.215-1.602.429-3.205.666-4.803.04-.277-.05-.33-.281-.373a13.892 13.892 0 0 0-2.124-.185zm66.502 4.997c-.271.823-.508 1.56-.759 2.298-.2.605-.414 1.205-.604 1.815a.478.478 0 0 1-.376.38c-2.593.691-5.22 1.066-7.898.729-3.051-.385-5.573-1.695-7.119-4.494-.951-1.732-1.252-3.618-1.124-5.562.246-3.699 1.787-6.765 4.651-9.14 1.741-1.443 3.771-2.186 6.005-2.406 1.541-.15 3.073-.122 4.577.297 3.061.847 5.101 3.228 5.493 6.38.225 1.813 0 3.592-.293 5.374-.036.222-.148.229-.317.229h-14.333c-.318 0-.411.078-.416.405-.045 2.664 1.427 4.423 4.045 4.873 1.936.339 3.819.045 5.699-.365a21.95 21.95 0 0 0 2.769-.813zm-6.915-7.56h3.796c1.16 0 1.16 0 1.199-1.159.079-2.348-1.356-3.878-3.69-4.008-2.792-.158-5.424 1.864-6.102 4.864-.056.249 0 .31.254.308 1.511-.012 3.017-.005 4.543-.005zm16.66 12.85a23.488 23.488 0 0 1-7.318-1.22c-.236-.082-.298-.15-.214-.406.388-1.174.759-2.354 1.114-3.539.088-.292.191-.268.425-.156a11.919 11.919 0 0 0 7.31 1.03 3.707 3.707 0 0 0 1.614-.66 1.797 1.797 0 0 0 .2-2.795 6.397 6.397 0 0 0-1.437-1.004c-1.297-.725-2.616-1.405-3.848-2.245-3.31-2.267-2.907-6.983.353-9.053 1.444-.917 3.025-1.376 4.705-1.55 2.8-.29 5.507.189 8.174.992.244.073.307.14.214.399a104.31 104.31 0 0 0-1.154 3.36c-.097.297-.212.275-.441.17a12.071 12.071 0 0 0-5.341-1.152c-.895.022-1.767.17-2.525.698a1.746 1.746 0 0 0-.729 1.985c.146.409.422.76.785.998.785.59 1.683.988 2.542 1.46a21.187 21.187 0 0 1 3 1.901c2.793 2.217 2.51 6.44-.169 8.586-1.729 1.382-3.753 1.934-5.905 2.131-.541.047-1.078.056-1.355.07zm18.284 0a23.539 23.539 0 0 1-7.222-1.209c-.27-.09-.339-.17-.239-.454.383-1.15.746-2.305 1.098-3.465.085-.281.17-.322.444-.19a11.98 11.98 0 0 0 7.275 1.034 3.994 3.994 0 0 0 1.493-.556c1.124-.716 1.261-2.033.312-2.956a6.218 6.218 0 0 0-1.317-.906c-1.356-.77-2.765-1.458-4.041-2.373-2.944-2.127-2.578-5.976-.778-7.909 1.214-1.3 2.746-1.998 4.446-2.373 2.256-.508 4.51-.386 6.763.031.949.17 1.878.427 2.806.678.309.086.421.178.29.53a78.463 78.463 0 0 0-1.093 3.22c-.097.297-.193.34-.485.213a12.139 12.139 0 0 0-5.264-1.151c-.848.015-1.666.14-2.405.585-.7.418-1.054 1.027-.949 1.864.066.532.386.903.789 1.209.848.642 1.823 1.066 2.745 1.574 1.05.581 2.088 1.186 3.005 1.968 2.569 2.203 2.279 6.288-.299 8.39-1.384 1.13-2.991 1.717-4.725 2.02-.876.142-1.762.218-2.649.225zm-67.148-4.99c-.086.508-.305.964-.466 1.444-.306.913-.634 1.818-.937 2.734a.446.446 0 0 1-.4.339c-2.034.339-4.09.554-6.156.398-3.083-.232-5.727-1.356-7.544-3.983-1.281-1.851-1.734-3.954-1.62-6.17.19-3.695 1.756-6.718 4.642-9.034 1.654-1.325 3.6-1.976 5.673-2.247a19.322 19.322 0 0 1 7.683.46c.478.13.939.313 1.408.465.17.055.214.127.151.312-.4 1.17-.796 2.343-1.17 3.52-.084.26-.2.207-.369.141a12.176 12.176 0 0 0-3.754-.88c-2.791-.157-5.219.61-6.961 2.934-1.632 2.179-1.885 5.795-.137 7.982 1.086 1.356 2.52 2.074 4.222 2.273 1.835.213 3.61-.14 5.362-.644.112-.032.226-.054.34-.082l.033.038zm19.322-.024c-.39 1.122-.837 2.232-1.157 3.378-.233.835-.624 1.232-1.536 1.324-2.542.254-5.085.538-7.627-.134-3.998-1.063-6.61-4.253-6.827-8.399-.237-4.505 1.488-8.105 5.117-10.767 1.525-1.117 3.305-1.646 5.162-1.889a19.379 19.379 0 0 1 7.682.458c.464.127.91.317 1.373.45.242.072.249.182.169.394a152.116 152.116 0 0 0-1.134 3.41c-.086.273-.189.263-.412.178-1.776-.678-3.593-1.046-5.51-.847-3.256.349-5.734 2.502-6.359 5.67-.45 2.286-.037 4.377 1.785 5.996 1.452 1.288 3.22 1.647 5.103 1.537a16.255 16.255 0 0 0 3.909-.746c.076-.013.144-.076.262-.013z" fill="#114185"/><path d="M17.02.063v3.24l17.88 17.88-15.482 15.482L3.915 21.163l7.595-7.595H8.213L.611 21.17 19.393 39.95 38.15 21.193 17.02.063z" fill="#FE6309"/><path d="M17.013 5.534v3.24l12.409 12.41-9.997 9.996L9.406 21.163l7.595-7.595h-3.296L6.103 21.17 19.4 34.466l13.273-13.273-15.66-15.659z" fill="#FE6309"/><path d="M19.36 13.33l-7.843 7.84 7.857 7.857 1.655-1.656 6.188-6.178-7.856-7.862zm.043 12.423l-4.59-4.59 4.565-4.564 4.576 4.576-4.55 4.578z" fill="#FE6309"/></svg>
